src/section/s1/t1m.svg

<svg width="223" height="40" viewBox="0 0 223 40" fill="none" xmlns="http://www.w3.org/2000/svg">
<path d="M202.617 0.431641H19.3969C8.68579 0.431641 0.00268555 9.13355 0.00268555 19.8679C0.00268555 30.6023 8.68579 39.3042 19.3969 39.3042H202.617C213.328 39.3042 222.011 30.6023 222.011 19.8679C222.011 9.13355 213.328 0.431641 202.617 0.431641Z" fill="#3F2F8E"/>
<path d="M22.7041 20.0589C20.3499 18.6882 19.0887 16.4693 19.0887 14.2897C19.0887 9.75086 22.8779 6.90283 27.6928 6.90283C33.029 6.90283 35.77 10.1778 35.77 13.6943C35.77 15.7334 34.649 18.0927 32.0481 19.5701V19.6432C34.4696 20.7666 36.6108 23.0192 36.6108 26.3616C36.6108 31.3555 32.7488 34.417 27.3061 34.417C21.4429 34.417 18.3152 31.0016 18.3152 26.9908C18.3152 23.7888 20.1761 21.4688 22.7041 20.1319V20.0589ZM30.4618 26.8166C30.4618 24.5303 28.8811 22.8732 27.0202 22.244C25.4395 22.9125 24.4586 24.564 24.4586 26.4683C24.4586 28.3726 25.5796 30.305 27.4798 30.305C29.4809 30.305 30.4618 28.5805 30.4618 26.8222V26.8166ZM24.879 14.0089C24.879 15.6997 26.1065 17.1041 27.9002 17.8063C29.0605 17.385 30.0751 15.7671 30.0751 14.2504C30.0751 12.6326 29.408 10.9418 27.5134 10.9418C25.3722 10.9418 24.879 12.7337 24.879 14.0033V14.0089Z" fill="#F5E929"/>
<path d="M44.3628 34.0294V12.7786H44.2899L39.688 15.1379L38.3203 10.6665L45.1644 7.29041H50.3941V34.0294H44.3572H44.3628Z" fill="#F5E929"/>
<path d="M59.9849 20.0589C57.6307 18.6882 56.3695 16.4693 56.3695 14.2897C56.3695 9.75086 60.1586 6.90283 64.9736 6.90283C70.3098 6.90283 73.0508 10.1778 73.0508 13.6943C73.0508 15.7334 71.9297 18.0927 69.3289 19.5701V19.6432C71.7504 20.7666 73.8916 23.0192 73.8916 26.3616C73.8916 31.3555 70.0295 34.417 64.5868 34.417C58.7237 34.417 55.5959 31.0016 55.5959 26.9908C55.5959 23.7888 57.4569 21.4688 59.9849 20.1319V20.0589ZM67.7426 26.8166C67.7426 24.5303 66.1619 22.8732 64.3009 22.244C62.7203 22.9125 61.7393 24.564 61.7393 26.4683C61.7393 28.3726 62.8604 30.305 64.7606 30.305C66.7617 30.305 67.7426 28.5805 67.7426 26.8222V26.8166ZM62.1597 14.0089C62.1597 15.6997 63.3873 17.1041 65.181 17.8063C66.3413 17.385 67.3558 15.7671 67.3558 14.2504C67.3558 12.6326 66.6888 10.9418 64.7942 10.9418C62.653 10.9418 62.1597 12.7337 62.1597 14.0033V14.0089Z" fill="#F5E929"/>
<path d="M92.9271 10.5823H97.8653V13.509H92.9271V14.2393H89.4742V13.509H84.2894V14.2393H80.8365V13.509H76.0664V10.5823H80.8365V9.16675L84.9956 9.38584C84.9732 9.65547 84.777 9.82398 84.2894 9.89701V10.5823H89.4742V9.16675L93.6614 9.38584C93.639 9.65547 93.4428 9.82398 92.9327 9.89701V10.5823H92.9271ZM96.8452 23.0418V29.3108C96.8452 31.6028 96.1894 32.3611 92.8542 32.3611C92.7589 31.7769 92.5627 31.0691 92.3217 30.4343L90.13 30.9455C90.13 30.6534 90.0796 30.3388 90.0067 29.9681C87.1088 30.2096 84.2389 30.4568 82.2715 30.5523C82.1986 30.7938 82.0024 30.9174 81.8118 30.9399L80.7636 27.5526C81.9576 27.5526 83.4878 27.5301 85.1918 27.4796V25.9179H80.6179V32.378H77.2603V23.0362H85.1918V22.452H79.2054V14.5033H94.9506V22.452H88.5494V23.0362H96.8452V23.0418ZM82.5125 16.7503V17.4356H85.1918V16.7503H82.5125ZM82.5125 20.2106H85.1918V19.5253H82.5125V20.2106ZM91.4921 17.43V16.7447H88.5494V17.43H91.4921ZM91.4921 20.2106V19.5253H88.5494V20.2106H91.4921ZM88.5494 27.4065L89.3509 27.3841C89.2556 27.0695 89.1323 26.7268 89.009 26.4347L91.2735 25.9235H88.5494V27.4122V27.4065ZM91.6155 25.9179C92.1536 27.0639 92.5908 28.4289 92.8094 29.5524C93.3419 29.5524 93.4204 29.5524 93.4204 29.2603V25.9179H91.621H91.6155Z" fill="#F5E929"/>
<path d="M107.719 24.6091V27.8784C109.25 28.339 110.808 28.339 115.017 28.339C117.719 28.339 121.273 28.3166 123.123 28.2155C122.59 29.0187 122.002 30.6534 121.783 31.7263H112.293C108.033 31.7263 105.141 31.1871 103.168 28.6761C102.927 30.2096 102.607 31.5803 102.148 32.6757C101.514 32.2375 100.203 31.6252 99.3955 31.3107C100.393 28.9457 100.612 24.6034 100.662 20.4859L104.362 20.9746C104.311 21.2161 104.121 21.3622 103.751 21.3903L103.678 23.5361C103.897 24.2439 104.166 24.8506 104.479 25.3899V19.3905H99.9056V16.2672H104.407V14.464H100.612V11.4137H104.407V9.14429L108.42 9.36337C108.398 9.63301 108.201 9.77906 107.714 9.85209V11.4137H110.685V14.464H107.714V16.2672H111.312V19.3905H107.714V21.5588H110.903V24.6091H107.714H107.719ZM117.938 16.4132V13.099H111.492V9.97567H121.323V20.2162H117.943V19.4579H115.511V23.2384C115.511 24.1428 115.634 24.2383 116.486 24.2383H118.627C119.406 24.2383 119.552 23.8226 119.647 21.2161C120.354 21.7554 121.811 22.3115 122.713 22.5306C122.349 26.3336 121.475 27.3841 118.941 27.3841H115.97C113 27.3841 112.103 26.4572 112.103 23.289V16.4132H117.943H117.938Z" fill="#F5E929"/>
<path d="M143.733 31.642H128.745V28.2378L131.463 25.2943C135.51 21.0531 137.954 18.295 137.954 15.447C137.954 13.6494 136.872 12.1664 134.619 12.1664C133.044 12.1664 131.497 12.9697 130.415 13.7449L128.991 9.77898C130.443 8.72852 133.01 7.76794 135.695 7.76794C140.981 7.76794 143.358 11.0204 143.358 14.9526C143.358 18.8848 140.639 22.2946 137.764 25.1426L135.785 27.0301V27.0919H143.728V31.642H143.733Z" fill="#F5E929"/>
<path d="M146.542 20.2162H154.854V23.9349H146.542V20.2162Z" fill="#F5E929"/>
<path d="M167.186 19.0084C169.753 19.6263 171.821 21.7329 171.821 24.8281C171.821 28.794 168.548 31.9791 162.982 31.9791C160.415 31.9791 158.161 31.3611 156.956 30.614L158.1 26.4965C158.996 27.0526 160.852 27.7042 162.516 27.7042C164.927 27.7042 166.289 26.3111 166.289 24.5472C166.289 22.1935 164.187 21.143 161.934 21.143H160.386V17.3344H161.777C163.509 17.3344 165.639 16.4974 165.639 14.5145C165.639 13.0876 164.618 12.0653 162.673 12.0653C161.16 12.0653 159.647 12.6832 158.75 13.2112L157.702 9.30713C158.94 8.53192 161.44 7.75671 164.008 7.75671C168.643 7.75671 171.115 10.4194 171.115 13.5764C171.115 15.9919 169.663 17.9411 167.191 18.9354V18.9972L167.186 19.0084Z" fill="#F5E929"/>
<path d="M203.401 24.0248H191.255C191.165 24.4573 191.098 24.8899 191.008 25.328H197.034L197.992 25.2325L200.526 25.6033C200.492 25.946 200.43 26.3448 200.341 26.7155C199.786 34.3946 199.074 34.7372 192.555 34.6136C192.493 33.4677 192.028 31.9173 191.412 30.9286C192.555 31.0241 193.637 31.0522 194.164 31.0522C195.246 31.0522 195.492 30.6477 195.739 28.6985H189.932C188.788 31.114 186.625 33.125 182.146 34.5518C181.804 33.6531 180.969 32.3554 180.167 31.4566C179.641 32.5071 178.99 33.5014 178.222 34.3665C177.421 33.625 175.47 32.3554 174.36 31.8892C177.886 28.0806 178.161 22.4463 178.161 18.3568V11.3575H200.627V19.1938H193.923C193.799 19.4129 193.553 19.5365 193.088 19.6263V20.6487H203.407V24.0248H203.401ZM203.244 6.46472V10.4587H175.403V6.46472H203.244ZM182.264 24.0248C181.956 26.3167 181.401 28.6985 180.47 30.805C185.291 29.3782 186.372 27.0863 186.804 24.0248H182.264ZM188.631 20.6487V19.1938H182.606C182.606 19.6601 182.578 20.1544 182.544 20.6487H188.631ZM196.204 14.61H182.606V15.9132H196.204V14.61Z" fill="#F5E929"/>
</svg>

<svg viewBox="0 0 223 40" fill="#3F2F8E" xmlns="http://www.w3.org/2000/svg">
<path d="M202.6,0.4H19.4c-25.9,0-25.9,38.9,0,38.9h183.2C228.4,39.3,228.4,0.4,202.6,0.4z"/>
<path fill="#F5E929" d="M22.7,20.1c-6.2-3.7-4.4-13.2,5-13.2c8.4,0,11,8.7,4.4,12.7c6.9,3,6.3,14.8-4.7,14.8
	C16.6,34.4,15.9,23.6,22.7,20.1z M27,22.2c-3.8,1.8-3.2,8.2,0.8,8.2C29.7,30.4,32.9,25.1,27,22.2z M27.9,17.8c4-2.4,1.9-7-0.4-7
	C24.4,10.8,23.3,16.1,27.9,17.8z M44.4,34V12.8c-0.1-0.1-4.6,2.4-4.7,2.4l-1.4-4.5l6.8-3.4h5.2V34H44.4L44.4,34z M60,20.1
	c-6.2-3.7-4.4-13.2,5-13.2c8.4,0,11,8.7,4.4,12.7c6.9,3,6.3,14.8-4.7,14.8C53.9,34.4,53.2,23.6,60,20.1z M64.3,22.2
	c-3.8,1.8-3.2,8.2,0.8,8.2C67,30.4,70.2,25.1,64.3,22.2z M65.2,17.8c4-2.4,1.9-7-0.4-7C61.7,10.8,60.6,16.1,65.2,17.8z M92.9,10.6
	h4.9v2.9h-4.9v0.7h-3.5v-0.7h-5.2v0.7h-3.5v-0.7h-4.8v-2.9h4.8V9.2L85,9.4c0,0.3-0.2,0.4-0.7,0.5v0.7h5.2V9.2l4.2,0.2
	c0,0.3-0.2,0.4-0.7,0.5L92.9,10.6L92.9,10.6z M96.8,23c-0.6,3.4,2.2,10-4,9.3c-0.1-0.6-0.3-1.3-0.5-1.9l-2.2,0.5
	c0-0.3-0.1-0.6-0.1-1c-2.9,0.2-5.8,0.5-7.7,0.6c-0.1,0.2-0.3,0.4-0.5,0.4l-1-3.4c1.2,0,2.7,0,4.4-0.1v-1.6h-4.6v6.5h-3.4V23h7.9
	v-0.6h-6v-7.9H95v7.9h-6.4V23L96.8,23L96.8,23z M82.5,16.8v0.7h2.7v-0.7H82.5z M82.5,20.2h2.7v-0.7h-2.7V20.2z M91.5,17.4v-0.7h-2.9
	v0.7H91.5z M91.5,20.2v-0.7h-2.9v0.7H91.5z M88.5,27.4l0.8,0c-0.1-0.3-0.2-0.7-0.3-0.9l2.3-0.5h-2.7V27.4L88.5,27.4z M91.6,25.9
	c0.5,1.1,1,2.5,1.2,3.6c1.2,0.5,0.4-3.2,0.6-3.6C93.4,25.9,91.6,25.9,91.6,25.9z M107.7,24.6v3.3c2.5,0.8,12.1,0.4,15.4,0.3
	c-0.5,0.8-1.1,2.4-1.3,3.5c-13.3,0-15.7,0.3-18.6-3.1c-0.2,1.5-0.6,2.9-1,4c-0.6-0.4-1.9-1.1-2.8-1.4c1-2.4,1.2-6.7,1.3-10.8
	l3.7,0.5c-0.1,0.2-0.2,0.4-0.6,0.4c0,2.1-0.4,2.1,0.7,4v-6h-4.6v-3.1h4.5v-1.8h-3.8v-3.1h3.8V9.1l4,0.2c0,0.3-0.2,0.4-0.7,0.5v1.6h3
	v3.1h-3v1.8h3.6v3.1h-3.6v2.2h3.2v3.1H107.7L107.7,24.6z M112.1,16.4h5.8h0v-3.3h-6.4V10h9.8v10.2h-3.4v-0.8h-2.4
	c0,4.6-0.2,4.8,1,4.8c2.8,0,3.2,0.6,3.2-3c0.7,0.5,2.2,1.1,3.1,1.3c-0.6,5.2-1.7,4.9-6.7,4.9c-3.8,0-3.9-1.9-3.9-5V16.4z
	 M135.8,27.1h7.9v4.6h0h-15v-3.4c16.1-14.6,6.9-18.7,1.7-14.5l-1.4-4C139.4,3.2,151.6,13.4,135.8,27.1z M146.5,20.2h8.3v3.7h-8.3
	V20.2z M167.2,19c10.2,4,2.1,17.2-10.2,11.6l1.1-4.1c8.6,4.9,12.2-6.3,2.3-5.4v-3.8c8.5,0.6,6-8.6-1.6-4.1l-1-3.9
	C169.7,3.4,175.4,14.9,167.2,19z M203.4,24h-12.1c-0.1,0.4-0.2,0.9-0.2,1.3c2.3,0.1,7.3-0.3,9.5,0.3c-0.7,7.5-0.8,9.6-8,9
	c-0.1-1.1-0.5-2.7-1.1-3.7c2.6-0.1,4,1.2,4.3-2.2h-5.8c-1.1,2.4-3.3,4.4-7.8,5.9c-0.3-0.9-1.2-2.2-2-3.1c-0.5,1.1-1.2,2-1.9,2.9
	c-0.8-0.7-2.8-2-3.9-2.5c5.1-6,3.5-13.8,3.8-20.5h22.5v7.8h-6.7c-0.1,0.2-0.4,0.3-0.8,0.4v1h10.3L203.4,24L203.4,24z M203.2,6.5v4
	h-27.8v-4H203.2z M182.3,24c-0.3,2.3-0.9,4.7-1.8,6.8c4.8-1.4,5.9-3.7,6.3-6.8H182.3z M188.6,20.6v-1.5h-6c0,0.5,0,1-0.1,1.5H188.6z
	 M196.2,14.6h-13.6v1.3h13.6V14.6z"/>
</svg>
